X:1
T:Velkommen Enge med Morgenluft
T:Velkommen Enge med Morgenluft
T:Ole Olsen
C:Ole Olsen
%%score [ 1 2 3 4 ]
L:1/8
Q:1/4=76
M:2/4
K:Gb
V:1 treble-8 nm="T1"
V:2 treble-8 nm="T2"
V:3 bass nm="B1"
V:4 bass nm="B2"
V:1
"^Allegretto marcato"!p! D | G3/2 A/ (3B A G | B3/2 e/ (3d z B | G3/2 A/ (3c B A | G F (3D z!f! d | %5
w: 1.Vel-|kom- men En- ge med|Mor- gen- luft, vel|kom- men Klit- ter med|vest- jydsk Duft, vel-|
w: 2.Vel-|kom- men, Frisk- hed paa|Sjæl og Krop, Til|Lyk- ke, Du som stod|tid- ligt op! Til|
 d3 d | f2 e d | a2 __e d | d2 (3g z g | g2 _f2 | __e2 (3:2:2d2 d |!<(! =c3 a!<)! | a2 (3d z d | %13
w: kom- men|Lin- ier og|Far- ver og|Fla- der hvor|i sig|Øi- et med|vel- lyst|ba- der, en|
w: Lyk- ke,|Du som ad|Ve- * jen|van- ker Med|ras- ke|Mus- kler og|re- ne|Tan- ker! Det|
 (3!^!d d d (3!^!d d d | (3:2:2!^!d2 d (3:2:2d2!ff! d | !^!e2 e e | !^!g2 g g | !^!c2 c c | %18
w: Sin- ke som ik- ke ved|sligt blir glad og|tog sig i|Land- ska- bets|Bøl- ger et|
w: sy- ge for Spej- let med|Smin- ken staar, Det|sun- de med|Sang o- ver|Mar- ker- ne|
 e2 z e | !^!e2 __e e | d2 D c |!>(! B2 B A!>)! |!mf! G2 (3z z!f! G | G2 G2 | z2 (3z z!ff! g | %25
w: Bad, og|tog sig i|Land- skab- ets|Bøl- ger et|Bad. vel-|kom- men,|vel-|
w: gaar, Det|sun- de med|Sang o- ver|Mar- ker- ne|gaar. vel-|kom- men,|vel-|
 g2 g2 |] %26
w: kom- men.|
w: kom- men.|
V:2
!p! D | G3/2 A/ (3B A G | B3/2 e/ (3d z B | G3/2 A/ (3c B A | G F (3D z!f! d | c3 c | c2 c c | %7
w: 1.Vel-|kom- men En- ge med|Mor- gen- luft, vel|kom- men Klit- ter med|vest- jydsk Duft, vel-|kom- men|Lin- ier og|
w: 2.Vel-|kom- men, Frisk- hed paa|Sjæl og Krop, Til|Lyk- ke, Du som stod|tid- ligt op! Til|Lyk- ke,|Du som ad|
 c2 G F | (EF) (3G z d | __e2 d2 | (c__B) (3:2:2A2 A |!<(! A3 =c!<)! | d2 (3d z d | %13
w: Far- ver og|Fla- * der hvor|i sig|Øi- * et med|vel- lyst|ba- der, en|
w: Ve- * jen|van- * ker Med|ras- ke|Mus- * kler og|re- ne|Tan- ker! Det|
 (3!^!d =c _c (3!^!B A B | (3(cB) c (3:2:2d2!ff! d | !^!e2 e e | !^!d2 d d | !^!c2 c c | B2 z G | %19
w: Sin- ke som ik- ke ved|sligt _ blir glad og|tog sig i|Land- ska- bets|Bøl- ger et|Bad, og|
w: sy- ge for Spej- let med|Smin- * ken staar, Det|sun- de med|Sang o- ver|Mar- ker- ne|gaar, Det|
 G2 A =A | B2 B G |!>(! B2 B A!>)! |!mf! G2 z2 | z2 (3z z!f! d | d2 (3:2:2d2!ff! d | d2 d2 |] %26
w: tog sig i|Land- skab- ets|Bøl- ger et|Bad.|vel-|kom- men, vel-|kom- men.|
w: sun- de med|Sang o- ver|Mar- ker- ne|gaar.|vel-|kom- men, vel-|kom- men.|
V:3
!p! D, | G,3/2 A,/ (3B, A, G, | B,3/2 E/ (3D z B, | G,3/2 A,/ (3C B, A, | G, F, (3D, z!f! D, | %5
w: 1.Vel-|kom- men En- ge med|Mor- gen- luft, vel|kom- men Klit- ter med|vest- jydsk Duft, vel-|
w: 2.Vel-|kom- men, Frisk- hed paa|Sjæl og Krop, Til|Lyk- ke, Du som stod|tid- ligt op! Til|
 F,3/2 G,/ (3A, G, F, | (3(A, B,) A, (3G, E, F, | (3(D,!<(!F,) A, (3C!<)! A, B, | %8
w: kom- men Lin- ier og|Far- ver og Fla- der hvor-|i * sig Øi- et med|
w: Lyk- ke, Du som ad|Ve- * jen van- ker Med|ras- * ke Mus- kler og|
 (3(D__D) C (3B, B, B, | (3__B, z B, (3B, A, __A, | (3:2:2G,2 G, (3=F, F, F, |!<(! G,2 G,2!<)! | %12
w: vel- * lyst ba- der, hvor-|i sig Øi- et med|vel- lyst bad- er, med|vel- lyst|
w: re- * ne Tan- ker! Med|ras- ke Mus- kler og|re- ne Tan- ker, og|re- ne|
 =F,2 (3D, z D, | (3!^!D, E, F, (3!^!G, F, G, | (3(!^!A,G,) A, (3:2:2B,2!ff! B, | !^!C2 C C | %16
w: ba- der, en|Sin- ke som ik- ke ved|sligt _ blir glad og|tog sig i|
w: Tan- ker! Det|sy- ge for Spej- let med|Smin- * ken staar, Det|sun- de med|
 !^!B,2 B, B, | !^!A,2 A, A, | G,2 z G, | !^!C2 G, G, | G,2 G, E, |!>(! F,2 F, F,!>)! | %22
w: Land- ska- bets|Bøl- ger et|Bad, og|tog sig i|Land- skab- ets|Bøl- ger et|
w: Sang o- ver|Mar- ker- ne|gaar, Det|sun- de med|Sang o- ver|Mar- ker- ne|
!mf! G,2 z2 | z2 (3z z!f! B, | B,2 (3:2:2B,2!ff! B, | B,2 B,2 |] %26
w: Bad.|vel-|kom- men, vel-|kom- men.|
w: gaar.|vel-|kom- men, vel-|kom- men.|
V:4
!p! D, | G,3/2 A,/ (3B, A, G, | B,3/2 E/ (3D z B, | G,3/2 A,/ (3C B, A, | G, F, (3D, z!f! D, | %5
w: 1.Vel-|kom- men En- ge med|Mor- gen- luft, vel|kom- men Klit- ter med|vest- jydsk Duft, vel-|
w: 2.Vel-|kom- men, Frisk- hed paa|Sjæl og Krop, Til|Lyk- ke, Du som stod|tid- ligt op! Til|
 F,3/2 G,/ (3A, G, F, | (3(A, B,) A, (3G, E, F, | (3(D,!<(!F,) A, (3C!<)! A, B, | %8
w: kom- men Lin- ier og|Far- ver og Fla- der hvor-|i * sig Øi- et med|
w: Lyk- ke, Du som ad|Ve- * jen van- ker Med|ras- * ke Mus- kler og|
 (3(B,__B,) A, (3G, G, G, | (3__E, z E, (3__B,, B,, B,, | (3:2:2C,2 C, (3D, D, D, | %11
w: vel- * lyst ba- der, hvor-|i sig Øi- et med|vel- lyst bad- er med|
w: re- * ne Tan- ker! Med|ras- ke Mus- kler og|re- ne Tan- ker, og|
!<(! __E,2 A,,2!<)! | D,2 (3D, z D, | (3!^!D, E, F, (3!^!G, F, G, | %14
w: vel- lyst|ba- der, en|Sin- ke som ik- ke ved|
w: re- ne|Tan- ker! De|sy- ge for Spej- let med|
 (3(!^!A,G,) A, (3:2:2B,2!ff! B, | !^!C2 C C | !^!B,2 B, B, | !^!A,2 A, A, | G,2 z C, | %19
w: sligt _ blir glad og|tog sig i|Land- ska- bets|Bøl- ger et|Bad, og|
w: Smin- * ken staar, Det|sun- de med|Sang o- ver|Mar- ker- ne|gaar, De|
 !^!C,2 C, =C, | D,2 D, D, |!>(! D,2 D, D,!>)! |!mf! G,2 (3z z!f! G, | G,2 G,2 | %24
w: tog sig i|Land- skab- ets|Bøl- ger et|Bad. vel-|kom- men,|
w: sun- de med|Sang o- ver|Mar- ker- ne|gaar. vel-|kom- men,|
 z2 (3:2:2z2!ff! G, | G,2 G,2 |] %26
w: vel-|kom- men.|
w: vel-|kom- men.|

